X: 297
T:Puer natus est nobis
N: Derived from Jos2610-Puer_natus_est_nobis.krn
C: Josquin des Prez
%%abc-version 2.0
%%abcx-abcm2ps-target-version 5.9.1 (29 Sep 2008)
%%abc-creator hum2abc beta
%%abcx-conversion-date 2019/02/12 16:15:53
%%abc-edited-by Jesse Rodin
%%abc-edited-by Jesse Rodin 8-17-2012
%%abcx-initial-encoding-date 2012/08/17/
%%humdrum-veritas 843292268
%%humdrum-veritas-data 4271748537
%%linebreak <none>
%%barnumbers 0
L: 1/4
M: 2/1
Q: 1/2=120
%%staves [1 2 3 4]
V: 1 clef=treble
V: 2 clef=treble-8
V: 3 clef=treble-8
V: 4 clef=bass
K: F
[V:1] F8 | 
[V:2] c4f4- | 
[V:3] F8 | 
[V:4] z8 | 
[V:1] G8 | 
[V:2] f2ede4 | 
[V:3] c8 | 
[V:4] C,8 | 
[V:1] A8 | 
[V:2] f8 | 
[V:3] c8 | 
[V:4] F,8 | 
[V:1] A4B4- | 
[V:2] f4g4- | 
[V:3] c4d4- | 
[V:4] F,4B,4 | 
[V:1] B4A4 | 
[V:2] g2f2f4- | 
[V:3] d4c2c2- | 
[V:4] B,4F,4 | 
[V:1] B8 | 
[V:2] f2ede4 | 
[V:3] c2BAB4 | 
[V:4] G,8 | 
[V:1] A8- | 
[V:2] f8- | 
[V:3] c8 | 
[V:4] F,8 | 
[V:1] A4z4 | 
[V:2] f4z4 | 
[V:3] F4c4- | 
[V:4] z4C,4 | 
[V:1] z8 | 
[V:2] z8 | 
[V:3] c2c2c4 | 
[V:4] F,6F,2 | 
[V:1] z8 | 
[V:2] z8 | 
[V:3] d2c4BA | 
[V:4] F,4G,4 | 
[V:1] z8 | 
[V:2] z8 | 
[V:3] B4A2d2- | 
[V:4] G,4F,4- | 
[V:1] z4F4 | 
[V:2] z8 | 
[V:3] d2c4B2 | 
[V:4] F,2E,2D,4 | 
[V:1] c6c2 | 
[V:2] c4f4- | 
[V:3] A2G2F4- | 
[V:4] C,4z4 | 
[V:1] c4d2c2- | 
[V:2] f2f2f4 | 
[V:3] F4z4 | 
[V:4] z8 | 
[V:1] c2B2A4 | 
[V:2] g4f4- | 
[V:3] z8 | 
[V:4] z8 | 
[V:1] G4A2c2- | 
[V:2] f2e2d2c2 | 
[V:3] z4z2C2 | 
[V:4] z8 | 
[V:1] c2=B2c4 | 
[V:2] d4c4 | 
[V:3] G4G2G2 | 
[V:4] z4C,4 | 
[V:1] A4A2A2 | 
[V:2] z2c2f4 | 
[V:3] A6F2 | 
[V:4] F,6F,2 | 
[V:1] A4B4 | 
[V:2] f2f2d2e2 | 
[V:3] c4B4 | 
[V:4] F,4G,4 | 
[V:1] A2G3FF2- | 
[V:2] f2e2d2B2 | 
[V:3] c4A2F2 | 
[V:4] F,2C,2D,4 | 
[V:1] F2E2F4- | 
[V:2] c4A4 | 
[V:3] G4F4- | 
[V:4] C,4F,4- | 
[V:1] F4z4 | 
[V:2] z4c4 | 
[V:3] F8- | 
[V:4] F,8- | 
[V:1] A4A4 | 
[V:2] c2c2A3B | 
[V:3] F4z4 | 
[V:4] F,4z4 | 
[V:1] A4F4 | 
[V:2] c2d3cBA | 
[V:3] z8 | 
[V:4] z8 | 
[V:1] G4A4- | 
[V:2] G2c3BAG | 
[V:3] z8 | 
[V:4] z8 | 
[V:1] A4F3G | 
[V:2] F2DEFGAB | 
[V:3] z8 | 
[V:4] z8 | 
[V:1] AFB3AA2- | 
[V:2] c2d3cBA | 
[V:3] z8 | 
[V:4] z8 | 
[V:1] A2G2A4- | 
[V:2] B4A4- | 
[V:3] z8 | 
[V:4] z4F,4 | 
[V:1] A8 | 
[V:2] A8 | 
[V:3] z8 | 
[V:4] F,2F,2D,4 | 
[V:1] z8 | 
[V:2] z8 | 
[V:3] c4c2c2 | 
[V:4] E,4F,4 | 
[V:1] z8 | 
[V:2] z8 | 
[V:3] A3Bc2d2- | 
[V:4] F,2G,2A,2B,2- | 
[V:1] z8 | 
[V:2] d4d4 | 
[V:3] d2c2B4 | 
[V:4] B,A,A,4G,2 | 
[V:1] A4A4 | 
[V:2] c4f4 | 
[V:3] A4z4 | 
[V:4] A,4z4 | 
[V:1] G4c4 | 
[V:2] e4c4 | 
[V:3] z8 | 
[V:4] z8 | 
[V:1] B4G4 | 
[V:2] d4e4 | 
[V:3] z4c4 | 
[V:4] z4C,4 | 
[V:1] A4B4- | 
[V:2] f6ed | 
[V:3] A2c4BA | 
[V:4] F,4G,4- | 
[V:1] B2B2A4 | 
[V:2] e4f4 | 
[V:3] B4c4 | 
[V:4] G,4F,4 | 
[V:1] A4A4 | 
[V:2] f4f4 | 
[V:3] d4d4 | 
[V:4] D,4D,4 | 
[V:1] B6B2 | 
[V:2] d6e2 | 
[V:3] B6B2 | 
[V:4] G,6G,2 | 
[V:1] A4G4 | 
[V:2] f4e4 | 
[V:3] c4c4- | 
[V:4] F,4C,4 | 
[V:1] A2c4=BA | 
[V:2] f6f2 | 
[V:3] c2c2c4 | 
[V:4] F,4A,4 | 
[V:1] =B4c4- | 
[V:2] g4e4- | 
[V:3] d4c4- | 
[V:4] G,4C,4 | 
[V:1] c8- | 
[V:2] e8- | 
[V:3] c4c4 | 
[V:4] z4C,4 | 
[V:1] c4z4 | 
[V:2] e4z4 | 
[V:3] c2c2A2c2 | 
[V:4] C,2C,2D,2C,2 | 
[V:1] z4c4 | 
[V:2] z4c4 | 
[V:3] B2G2A4 | 
[V:4] D,2E,2F,4- | 
[V:1] c2c2A2c2 | 
[V:2] c2c2d2c2 | 
[V:3] z8 | 
[V:4] F,4z4 | 
[V:1] B2G2A4 | 
[V:2] d2e2f4 | 
[V:3] z8 | 
[V:4] z8 | 
[V:1] z2G2A4 | 
[V:2] z2e2f4 | 
[V:3] z4z2A2 | 
[V:4] z2C,2F,4 | 
[V:1] G4z2G2 | 
[V:2] e4z2e2 | 
[V:3] c4c4 | 
[V:4] C,4z2C,2 | 
[V:1] A4G4 | 
[V:2] f4e4 | 
[V:3] z2A2c4 | 
[V:4] F,4C,4 | 
[V:1] z2G2A4 | 
[V:2] z2e2f4 | 
[V:3] c4z2A2 | 
[V:4] z2C,2F,4 | 
[V:1] G2A4GF | 
[V:2] e4A2B2 | 
[V:3] c2c2F2F2 | 
[V:4] C,4D,4 | 
[V:1] E2F4E2 | 
[V:2] c2d2c4 | 
[V:3] G8 | 
[V:4] C,2B,,2C,4 | 
[V:1] F8 |]  
[V:2] c8 |]  
[V:3] F8 |]  
[V:4] F,8 |]  



